!!!COM: Scarlatti, Domenico
!!!CDT: 1685-1757
!!!OTL: Sonata in C major, L.52, K.165
!!!SCT: K. 165
!!!SCT: L. 052
!!!OMD: Andante ([quarter]=108)
**kern	**kern	**dynam
*staff2	*staff1	*staff1/2
*Icemba	*Icemba	*
*I"L.52 (K.165)	*I"L.52 (K.165)	*
*>[A,A1,A,A2,B,B2,B,B2]	*>[A,A1,A,A2,B,B2,B,B2]	*>[A,A1,A,A2,B,B2,B,B2]
*>norep[A,A2,B,B2]	*>norep[A,A2,B,B2]	*>norep[A,A2,B,B2]
*>A	*>A	*>A
*clefF4	*clefG2	*
*k[]	*k[]	*
*C:	*C:	*
*M3/4	*M3/4	*
*MM108	*MM108	*
=1-	=1-	=1-
4C+	(12ccL	p
.	12ee	.
.	12ggJ)	.
(4e	2gg	.
4c)	.	.
=2	=2	=2
*	*Xtuplet	*
.	(8qgg	.
(4f	(12ffL)	.
.	12ee	.
.	12ddJ	.
4g)	4cc)	.
.	(16qqb	.
(4f	(4bt)	.
.	(32qaLLL	.
.	32qbJJJ	.
=3	=3	=3
4e)	12ccL)	.
.	12ee	.
.	12ggJ)	.
(4e	2gg	.
4c)	.	.
=4	=4	=4
(4f	(12aL	.
.	12ff	.
.	12ddJ	.
4g)	4cc)	.
.	(16qqb	.
(4f	(4bt)	.
.	(32qqaLLL	.
.	32qqbJJJ	.
!!LO:LB:g=z
=5	=5	=5
4e	12ccL)	.
.	12ee	.
.	12ffJ	.
4a'	4ee'	.
4g')	4ee')	.
=6	=6	=6
(4f'	(12eeL	.
.	12dd	.
.	12ffJ	.
4g'	4cc' 4ee'	.
4G')	4b' 4dd')	.
=7	=7	=7
4r	(12ccL	.
.	12ee	.
.	12ffJ	.
(4a'	4ee'	.
4g')	4ee')	.
=8	=8	=8
(4f'	(12eeL	.
.	12dd	.
.	12ffJ	.
4g'	4cc' 4ee'	.
4G')	4b' 4dd'	.
=9	=9	=9
*ped	*	*
(8cL	4cc)	.
8G	.	.
8E	4r	.
8CJ	.	.
8GGL	4r	.
8EEJ	.	.
!!LO:LB:g=z
=10	=10	=10
*Xped	*	*
4CC)	4r	.
4r	(4ee'	<
(4c'	4ee'	.
=11	=11	=11
4B-'	12eeL	[ >
.	12ff	.
.	12cc#J	.
4B-'	4dd'	]
4B-')	4dd')	.
=12	=12	=12
(4A'	(12ddL	.
.	12cc#	.
.	12ddJ	.
4A'	12eeL	<
.	12ff	.
.	12ggJ	[[
4A'	12ggL	>
.	12ff	.
.	12eeJ	]]
=13	=13	=13
4D)	12ffL	.
.	12ee	.
.	12ddJ	]
*ped	*	*
8r	4dd)	mf
(8AL	.	.
8F	4r	.
8DJ	.	.
=14	=14	=14
*Xped	*	*
4DD)	4r	.
4r	(4dd'	p
(4f'	4dd'	.
!!LO:LB:g=z
=15	=15	=15
4e'	12ddL	>
.	12ee	.
.	12bJ	.
4e'	4cc'	]
4e')	4cc')	.
=16	=16	=16
(4d'	(12ccL	.
.	12b	.
.	12ccJ	.
4d'	12ddL	<
.	12ee	.
.	12ffJ	[[
4G'	12ffL	>
.	12ee	.
.	12ddJ	]]
=17	=17	=17
4C)	12eeL	.
.	12dd	.
.	12ccJ	]
*ped	*	*
8r	4cc)	mf
(8GL	.	.
8E	4r	.
8CJ	.	.
=18	=18	=18
*Xped	*	*
4CC)	8r	.
.	(8ggL	.
4r	8ff#	.
.	8ee-	.
(4c	8dd	.
.	8ccJ	.
=19	=19	=19
4d)	8cccL	<
.	8aa	.
(4d	8ff#	.
.	8ee-	.
4f#)	8dd	.
.	8ccJ)	.
!!LO:LB:g=z
=20	=20	=20
4r	(8dddL	.
.	8bb-	.
(4g'	8gg	.
.	8ffn	.
4g')	8een	.
.	8ddJ)	.
=21	=21	=21
4r	(8dddL	.
.	8bbn	.
(4g#'	8gg#	.
.	8ffn	.
4g#^	8ee	.
.	8ddJ	.
=22	=22	=22
4.a	12cc#L	f
.	12dd	.
.	12eeJ)	.
.	(2ee	.
8gnL	.	>
8f#m	.	.
8eJ	.	.
=23	=23	=23
4.d	12ff#L	p
.	12gg	.
.	12aaJ)	.
.	(2aa	.
8cL	.	<
8Bm	.	.
8AJ	.	.
=24	=24	=24
4.G	12bbL	.
.	12ccc	.
.	12dddJ)	.
.	2ddd	.
8F#L	.	.
8EM	.	.
8DJ	.	.
!!LO:PB:g=z
=25	=25	=25
4C	8r	mf
.	8cc' 8ee'L	.
4D/)	8cc (8ee	.
.	8b 8dd)	.
(4DD	8b (8dd	.
.	8a 8ccJ	.
=26	=26	=26
4GG')	8b')	.
.	(4cc#^	p
(4G	.	.
.	8dd	.
4F#)	16eeLL	.
.	16ccn	.
.	16b	.
.	16aJJ	.
=27	=27	=27
4r	8b')	.
.	(4cc#^	.
(4G	.	.
.	8dd	.
4F#)	16eeLL	.
.	16ccn	.
.	16b	.
.	16aJJ)	.
=28	=28	=28
4r	(8bbL	mf
.	8gg	.
(<4G	8dd	.
.	8b	.
4BB	8g	.
.	8ddJ)	.
=29	=29	=29
.	(8qdd	.
4C	(12ccL)	.
.	12b	.
.	12aJ	.
4D'/	4g' 4b'	.
4DD')	4f#' 4a')	.
!!LO:LB:g=z
=30	=30	=30
4GG'	8b	.
.	(4cc#^	p
(4G	.	.
.	8dd	.
4F#)	16eeLL	.
.	16ccn	.
.	16b	.
.	16aJJ	.
=31	=31	=31
4r	8b')	.
.	(4cc#^	.
(4G	.	.
.	8dd	.
4F#)	16eeLL	.
.	16ccn	.
.	16b	.
.	16aJJ)	.
=32	=32	=32
4r	(8bbL	p
.	8gg	.
(<4G	8dd	.
.	8b	.
4BB	8g	.
.	8ddJ)	.
=33	=33	=33
4C	(12ccL	.
.	12b	.
.	12aJ	.
4D/	4g' 4b'	.
4DD')	4f#' 4a')	.
=34	=34	=34
4GG	(16bLL<	<
.	16g	.
.	16cc	.
.	16aJJ	.
4r	16ddLL	.
.	16b	.
.	16ee	.
.	16ccJJ	[
(4BB	8dd'L)	f
.	([8ggJ	.
!!LO:LB:g=z
=35	=35	=35
4C)	8ggL]	.
.	8aJ)	.
.	(32qqb	.
(4D	(4.aT)	.
4DD	.	.
.	16gLL	.
.	16aJJ	.
=36	=36	=36
4GG)	16bLL<	p
.	16g	.
.	16cc	.
.	16aJJ	.
4r	16ddLL	<
.	16b	.
.	16ee	.
.	16ccJJ	[
(4BB	8dd'L)	p
.	([8ggJ	.
=37	=37	=37
4C)	8ggL]	.
.	8aJ)	.
.	(32qqb	.
(4D	(4.aT)	.
4DD	.	.
.	16gLL	.
.	16f#JJ	.
=38	=38	=38
*>A1	*>A1	*>A1
4GG)	4g)	.
(8GL	4r	p
8Fn	.	.
8E	4r	.
8DJ)	.	.
=39:|!	=39:|!	=39:|!
*>A2	*>A2	*>A2
4GG)	4g)	p
4r	4r	.
4r	4r	.
!!LO:LB:g=z
=40!|:	=40!|:	=40!|:
*>B	*>B	*>B
4GG	8r	p
.	(8gL>	.
4r	8dd	.
.	8b-J)	.
4A (4c	(8aLmz	.
.	16gL	.
.	16f#JJ)	.
=41	=41	=41
4B- 4d)	8r	.
.	(8gL>	.
4B- (4d	8dd	.
.	8b-J)	.
4c 4e-	(8aLmz	.
.	16gL	.
.	16fJJ)	.
=42	=42	=42
4B- 4d)	8r	.
.	8gg'L	mf
4B-' (4d'	(8ff#	<
.	8gg)	.
4B-' 4d')	(8ff#	.
.	[8ggJ	.
=43	=43	=43
(4AA'/ 4A'/	8ggL]	[ f
.	8eeJ	.
4AA'/ 4A'/	8cc#')	.
.	4b-	.
4AA'/) 4A'/	.	.
.	16aLL	.
.	16gJJ	.
!!LO:LB:g=z
=44	=44	=44
!	!	!LO:DY:a=2
4d 4f	8r	p
!	!	!LO:DY:b
.	8aa'L	mf
4d (4f	(8gg#	<
.	8aa)	.
4c 4e)	(8gg#	.
.	[8aaJ	.
=45	=45	=45
4BB' (4B'	8aaL]	[ f
.	8ff#J	.
4BB' 4B'	8dd#')	.
.	(4ccn	>
4BB' 4B')	.	.
.	16bLL<	.
.	16aJJ	]]
=46	=46	=46
*	*tuplet	*
4E' (4d'	12g#L	p
.	12b	.
.	12ddJ)	.
4E' 4d'	(12ddL	.
.	12b	.
.	12ddJ	.
*	*Xtuplet	*
4E' 4d')	8dd'L)	.
.	([8dd^J	.
=47	=47	=47
4F' (4d'	12ddL]	.
.	12b	.
.	12ddJ	.
4F' 4d'	12ddL	.
.	12dd	.
.	12ffJ	.
4F' 4d')	8ddL)	.
.	[8dd^J	.
!!LO:PB:g=z
=48	=48	=48
4G#' (4d'	8ddL]	.
.	(8bb	mf
4G#' 4d'	8gg#	.
.	8ffn	.
4G#' 4d')	8ee	.
.	8ddJ	.
=49	=49	=49
4A' (4e'	12ccL)	.
.	(12cc	p
.	12eeJ	.
4A' 4e')	8cc')	.
.	4cc~	.
*ped	*	*
(<4Gn 4e	.	.
.	([8cc^	mf
=50	=50	=50
*Xped	*	*
4F#) 4d	8ccL]	.
.	8aa	.
4F#' (4d'	8ff#	.
.	8ee	.
4F#' 4d')	8dd	.
.	8ccJ	.
=51	=51	=51
4Fn' (4d'	8bL)	.
.	(8ffn	p
4F' 4d'	8dd	.
.	8bJ)	.
4F~ 4d~)	(8ffLM	.
.	16eeL	.
.	16ddJJ	.
!!LO:LB:g=z
=52	=52	=52
4r	8ccL)	<
.	(8gg	.
4E' (4G'	8ee	.
.	8ccJ)	.
4E~ 4G)	(8ggLM	.
.	16ffL	.
.	16eeJJ	.
=53	=53	=53
4r	8ddL)	.
.	(8aa	.
4BB' (4G'	8ff	.
.	8ddJ)	.
4BB~ 4G)	(8aaLM	.
.	16ggL	.
.	16ffJJ)	.
=54	=54	=54
(4C\	(12eeLm	mf
.	12dd	.
.	12eeJ)	.
4D	(12ffLM	<
.	12ee	.
.	12ffJ)	.
4E	(12ggLM	.
.	12ff	.
.	12ggJ)	.
=55	=55	=55
4F	(12aaLM	.
.	12gg	.
.	12aaJ)	.
4G	(12bbLm	.
.	12aa	.
.	12bbJ)	.
4A	(12cccLM	.
.	12bb	.
.	12cccJ	.
!!LO:LB:g=z
=56	=56	=56
4G)	8dddL	f
.	8ccc	.
(4A	8bb	.
.	8aa	.
4B	8gg	.
.	8ffJ	.
=57	=57	=57
4c')	8ee')	.
.	(4ff#^	.
(4c	.	.
.	8gg	.
4B)	16aaLL	.
.	16ffn	.
.	16ee	.
.	16ddJJ	.
=58	=58	=58
4r	8ee')	.
.	(4ff#^	.
(4c	.	.
.	8gg	.
4B	16aaLL	.
.	16ffn	.
.	16ee	.
.	16ddJJ	.
=59	=59	=59
4c')	8ee'L)	.
.	(8gg	.
(4C	8ccc	.
.	8gg	.
4E	8ee	.
.	8ccJ	.
=60	=60	=60
*	*tuplet	*
4F	12ddL	.
.	12ee	.
.	12ffJ	.
4G'	4cc' 4ee'	.
4GG')	4b' 4dd')	.
!!LO:LB:g=z
=61	=61	=61
4c'	8ee'	.
.	(4ff#	p
(4c	.	.
.	8gg	.
4B)	16aaLL	.
.	16ffn	.
.	16ee	.
.	16ddJJ	.
=62	=62	=62
4r	8ee')	.
.	(4ff#	.
(4c	.	.
.	8gg	.
4B	16aaLL	.
.	16ffn	.
.	16ee	.
.	16ddJJ	.
=63	=63	=63
4c')	8ee'L)	.
.	(8gg	.
(4C	8ccc	.
.	8gg	.
4E	8ee	.
.	8ccJ	.
=64	=64	=64
4F	12ddL	.
.	12ee	.
.	12ffJ	.
4G'	4cc' 4ee'	.
4GG')	4b' 4dd')	.
=65	=65	=65
4C	(16eeLL	<
.	16cc	.
.	16ff	.
.	16ddJJ	.
4r	16ggLL	.
.	16ee	.
.	16aa	.
.	16ffJJ	[
(<4E 4c	8gg'L)	f
.	([8cccJ	.
!!LO:LB:g=z
=66	=66	=66
4F) 4c	8cccL]	.
.	8ddJ)	.
.	(32qqee	.
4G (4c	(4.ddT)	.
4G 4B	.	.
.	16ccLL	.
.	16ddJJ	.
=67	=67	=67
4C' 4c')	16eeLL	.
.	16cc	p
.	16ff	.
.	16ddJJ	.
4r	16ggLL	<
.	16ee	.
.	16aa	.
.	16ffJJ	.
(4E	8gg'L)	[
.	([8cccJ	p
=68	=68	=68
4F)	8cccL]	.
.	8ddJ)	.
.	(32qqee	.
(4G	(4.ddT)	.
4GG	.	.
.	16ccLL	.
.	16bJJ	.
=69	=69	=69
*>B1	*>B1	*>B1
4CC)	8ccL<	>
.	8gJ)	]]
4r	(8cL	<
.	8d	.
4r	8e	.
.	8f#J)	[
=70:|!	=70:|!	=70:|!
*>B2	*>B2	*>B2
4CC)	4cc)	p
4r	4r	.
4r	4r	.
==	==	==
*-	*-	*-
!!!RDF**kern: > = above
!!!RDF**kern: < = below
!!!RDF**kern: + = marked note, optional, color=silver
!!!verovio: beamFrenchStyle 1
!!!URL-vhv: https://verovio.humdrum.org/?file=scarlatti/sonatas/L052K165.krn
!!!URL-pdf: https://github.com/craigsapp/scarlatti-keyboard-sonatas/blob/master/reference-edition/L052K165.pdf
!!!URL-youtube: https://www.youtube.com/watch?v=Po2H0fboHLc Claudo Colombo, harpsichord
!!!URL-youtube: https://www.youtube.com/watch?v=TOKL-zcoOMo Carlo Grante, piano
!!!URL-youtube: https://www.youtube.com/watch?v=apxa7RnrH4Y Lucio Dosso, chitarra
!!!PTL: Domenico Scarlatti: Opere complete per clavicembalo
!!!PED: Longo, Alessandro
!!!PPR: Ricordi
!!!PPP: Milan
!!!PDT: 1906-1913
!!!YEC: 2021 Craig Stuart Sapp
!!!YEM: Licence: (CC BY-NC-SA 4.0) https://creativecommons.org/licenses/by-nc-sa/4.0
!!!ENC: Craig Stuart Sapp
!!!END: 2005/06/20
!!!EED: Craig Stuart Sapp
!!!EEV: 2021/01/18
